X:1
T:Title
%%score 1 2
L:1/8
Q:1/4=75
M:3/4
K:Eb
V:1 treble nm="Grand Piano, Soprano"
V:2 bass nm="Choir Pad, Blessed Redeemer (Crosby 2)"
V:1
 (3[EG][EG][Ac] [GB]2 [EG]2 | (3[Ge][Bd][Ac] [GB]2 [EG]2 | (3[EG][FA][Ac] [GB]2 (3[GB][Ac][FA] | %3
w: By~James~M.~North * * * *|||
 (3[EG][FA][DF] [EG]4 | (3[EG][EG][Ac] [GB]2 [EG]2 | (3[Ge][Bd][Ac] [GB]2 [EG]2 | %6
w: |||
 (3[EG][FA][Ac] [GB]2 (3[GB][Ac][FA] | (3[EG][FA][DF] E4 | (3[DF][EG][DF] [DB]2 [DF]2 | %9
w: |||
 (3[DB][Ec][Fd] [Ge]2 [Fd]2 | (3[=Ed][Ec][EG] [_Ec]2 [E=A]2 | (3[E=A][EG][EF] [EG]2 [DF]2 | %12
w: |||
 (3[DF][EG][DF] [DB]2 [DF]2 | (3[FB][Fc][Fd] [Ee]2 [EG]2 | (3[=EG][Ec][FB] [_E=A]2 [EG]2 | %15
w: |||
 (3[EF][EG][E=A] [DB]4 | (3[EG][EG][Ac] [GB]2 [EG]2 | (3[Ge][Bd][Ac] [GB]2 [EG]2 | %18
w: |||
 (3[EG][FA][Ac] [GB]2 (3[GB][Ac][FA] | (3[EG][FA][DF] E4- | E4 z2 |] %21
w: |||
V:2
 (3[E,B,][E,B,][E,E] [E,E]2 [E,B,]2 | (3[E,B,][E,B,][E,E] [E,E]2 [E,B,]2 | %2
 (3[E,B,][E,B,][E,E] [E,E]2 (3:2:2[A,C]2 [A,C] | (3B,B,B, [E,B,]4 | %4
 (3[E,B,][E,B,][E,E] [E,E]2 [E,B,]2 | (3[E,B,][E,B,][E,E] [E,E]2 [E,B,]2 | %6
 (3[E,B,][E,B,][E,E] [E,E]2 (3:2:2[A,C]2 [A,C] | (3B,B,B, [E,G,]4 | %8
 (3[B,,B,][B,,B,][B,,B,] [B,,F,]2 [B,,B,]2 | (3[B,,B,][B,,B,][B,,B,] [B,,B,]2 [B,,B,]2 | %10
 (3[C,B,][C,B,][C,B,] [F,A,]2 [F,C]2 | (3[F,C][F,B,][F,A,] [B,,B,]2 [B,,B,]2 | %12
 (3[B,,B,][B,,B,][B,,B,] [B,,F,]2 [B,,B,]2 | (3[B,D][=A,C][_A,B,] [G,B,]2 [E,B,]2 | %14
 (3[C,B,][C,G,][C,C] [F,C]2 [F,C]2 | (3[F,A,][F,B,][F,C] [B,,B,]4 | %16
 (3[E,B,][E,B,][E,E] [E,E]2 [E,B,]2 | (3[E,B,][E,B,][E,E] [E,E]2 [E,B,]2 | %18
 (3[E,B,][E,B,][E,E] [E,E]2 (3:2:2[A,C]2 [A,C] | (3B,B,B, [E,G,]4- | [E,G,]4 z2 |] %21

